X:181
T:Mrs. Carey's Bridal Day
M:6/8
L:1/8
B:Thompson's Compleat Collection of 200 Favourite Country Dances, vol. 3 (London, 1773)
Z:Transcribed and edited by Flynn Titford-Mock, 2007
Z:abc's:AK/Fiddler's Companion
K:A
A2a aga | B2c d2f | B2c d2f | e2E A3::G3 e^de | F3 GAB |
c2e d2B | E2G A3::Ac(e e)cA | Bd(f f)dB | A3 f3 | cdB A3 :|

